X:77
T:Hilo, Johnny Brown
M:C|
L:1/8
Q:1/4=3D100
K:DDOR
CCCD E2G2|c2B2 A2E2|A4 B4|c2A4 A2|
dddB c2A2|B2G2 A2A,2|A2A2 AAA2|F2EE D4||
